templates/main/source/images/small/gift-catalog.svg

<svg xmlns="http://www.w3.org/2000/svg" width="24" height="24" viewBox="0 0 24 24">
  <g fill="none" fill-rule="evenodd">
    <path fill="#FFF" d="M12,0.705882353 C18.2375689,0.705882353 23.2941176,5.76243106 23.2941176,12 C23.2941176,18.2375689 18.2375689,23.2941176 12,23.2941176 C5.76243106,23.2941176 0.705882353,18.2375689 0.705882353,12 C0.705882353,5.76243106 5.76243106,0.705882353 12,0.705882353 Z"/>
    <path fill="#8C0014" fill-rule="nonzero" d="M12,24 C5.372583,24 0,18.627417 0,12 C0,5.372583 5.372583,0 12,0 C18.627417,0 24,5.372583 24,12 C24,15.1825979 22.7357179,18.2348448 20.4852814,20.4852814 C18.2348448,22.7357179 15.1825979,24 12,24 Z M12,1.41176471 C6.15227912,1.41176471 1.41176471,6.15227912 1.41176471,12 C1.41176471,17.8477209 6.15227912,22.5882353 12,22.5882353 C17.8477209,22.5882353 22.5882353,17.8477209 22.5882353,12 C22.5882353,9.1918254 21.4726923,6.49866632 19.487013,4.51298702 C17.5013337,2.52730772 14.8081746,1.41176471 12,1.41176471 Z"/>
    <path fill="#8C0014" fill-rule="nonzero" d="M11.4545455,12 L11.4545455,8.56482198 L10.3878832,8.56482198 C9.38787601,8.56482198 9.27272727,7.87130418 9.27272727,7.19722745 C9.27272727,6.49721085 9.71515219,6.0823944 10.3636364,6.0823944 C11.1090906,6.0823944 11.4545455,6.69814794 11.4545455,7.72869029 L11.4545455,8.56482198 L12.5454545,8.56482198 L12.5454545,7.72869029 C12.5454545,6.69814794 12.8909352,6.0823944 13.6363636,6.0823944 C14.2848737,6.0823944 14.7272727,6.49721085 14.7272727,7.19722745 C14.7272727,7.87130418 14.2545587,8.56482198 13.2666792,8.56482198 L12.5454545,8.56482198 L12.5454545,12 L16.9090909,12 C17.5697287,12 18,11.7277974 18,11.034252 L18,9.53057 C18,8.84352333 17.5697287,8.56482198 16.9090909,8.56482198 L15.2242595,8.56482198 C15.6000121,8.20185759 15.8181818,7.70924922 15.8181818,7.15184653 C15.8181818,5.90092603 14.8121323,5 13.6363636,5 C12.7636588,5 12.3091148,5.51849291 12,6.43888766 C11.6909111,5.51849291 11.2363671,5 10.3636364,5 C9.19394447,5 8.18181818,5.90092603 8.18181818,7.15184653 C8.18181818,7.70924922 8.30180698,8.20185759 8.68363636,8.56482198 L7.09090909,8.56482198 C6.4666545,8.56482198 6,8.84352333 6,9.53057 L6,11.034252 C6,11.7277974 6.43634812,12 7.09090909,12 L11.4545455,12 Z M11.45,18 L11.45,13 L7,13 L7,16.6299973 C7,17.5307595 7.53699136,18 8.45204391,18 L11.45,18 Z M12.55,13 L12.55,18 L15.5479561,18 C16.4630086,18 17,17.5307595 17,16.6299973 L17,13 L12.55,13 Z"/>
  </g>
</svg>

<svg xmlns="http://www.w3.org/2000/svg" width="24" height="24" viewBox="0 0 24 24"><g fill="none" fill-rule="evenodd"><path fill="#FFF" d="M12 .706C18.238.706 23.294 5.762 23.294 12S18.238 23.294 12 23.294.706 18.238.706 12 5.762.706 12 .706z"/><path fill="#8C0014" fill-rule="nonzero" d="M12 24C5.373 24 0 18.627 0 12S5.373 0 12 0s12 5.373 12 12a12 12 0 01-12 12zm0-22.588C6.152 1.412 1.412 6.152 1.412 12c0 5.848 4.74 10.588 10.588 10.588 5.848 0 10.588-4.74 10.588-10.588A10.588 10.588 0 0012 1.412z"/><path fill="#8C0014" fill-rule="nonzero" d="M11.455 12V8.565h-1.067c-1 0-1.115-.694-1.115-1.368 0-.7.442-1.115 1.09-1.115.746 0 1.092.616 1.092 1.647v.836h1.09v-.836c0-1.03.346-1.647 1.091-1.647.649 0 1.091.415 1.091 1.115 0 .674-.472 1.368-1.46 1.368h-.722V12h4.364c.66 0 1.091-.272 1.091-.966V9.531c0-.687-.43-.966-1.09-.966h-1.686c.376-.363.594-.856.594-1.413C15.818 5.9 14.812 5 13.636 5c-.872 0-1.327.518-1.636 1.439C11.69 5.519 11.236 5 10.364 5c-1.17 0-2.182.9-2.182 2.152 0 .557.12 1.05.502 1.413H7.09c-.623 0-1.09.279-1.09.965v1.503c0 .694.436.966 1.09.966h4.365zm-.005 6v-5H7v3.63c0 .9.537 1.37 1.452 1.37h2.998zm1.1-5v5h2.998c.915 0 1.452-.47 1.452-1.37V13h-4.45z"/></g></svg>
